Sources/FrostedUI/Resources/Icons.xcassets/split16.imageset/split-16.svg

<svg width="16" height="16" viewBox="0 0 16 16" fill="none" xmlns="http://www.w3.org/2000/svg" data-fui-icon="true">
  <path
    d="M12.2451 0.195312C12.5515 -0.0832136 13.026 -0.0610529 13.3047 0.245117L15.8047 2.99512C16.0647 3.28118 16.0647 3.71882 15.8047 4.00488L13.3047 6.75488C13.026 7.06105 12.5515 7.08321 12.2451 6.80469C11.9389 6.52602 11.9168 6.0515 12.1953 5.74512L13.5547 4.25H11.4385C10.9773 4.25004 10.5521 4.50017 10.3281 4.90332L8.60742 8L10.3281 11.0967C10.5521 11.4998 10.9773 11.75 11.4385 11.75H13.5547L12.1953 10.2549C11.9168 9.9485 11.9389 9.47398 12.2451 9.19531C12.5515 8.91679 13.026 8.93895 13.3047 9.24512L15.8047 11.9951C16.0647 12.2812 16.0647 12.7188 15.8047 13.0049L13.3047 15.7549C13.026 16.0611 12.5515 16.0832 12.2451 15.8047C11.9389 15.526 11.9168 15.0515 12.1953 14.7451L13.5547 13.25H11.4385C10.4326 13.25 9.50613 12.7045 9.01758 11.8252L7.30859 8.75H5.90234C5.56905 10.0435 4.39761 11 3 11C1.34315 11 0 9.65685 0 8C0 6.34315 1.34315 5 3 5C4.39761 5 5.56905 5.95646 5.90234 7.25H7.30859L9.01758 4.1748C9.50613 3.29554 10.4326 2.75004 11.4385 2.75H13.5547L12.1953 1.25488C11.9168 0.948503 11.9389 0.473984 12.2451 0.195312ZM3 6.5C2.17157 6.5 1.5 7.17157 1.5 8C1.5 8.82843 2.17157 9.5 3 9.5C3.82843 9.5 4.5 8.82843 4.5 8C4.5 7.17157 3.82843 6.5 3 6.5Z"
    fill="currentColor"
  />
</svg>

<svg xmlns="http://www.w3.org/2000/svg" width="16" height="16" fill="none" data-fui-icon="true" viewBox="0 0 16 16"><path fill="currentColor" d="M12.245.195a.75.75 0 0 1 1.06.05l2.5 2.75c.26.286.26.724 0 1.01l-2.5 2.75a.75.75 0 0 1-1.11-1.01l1.36-1.495h-2.117c-.46 0-.886.25-1.11.653L8.608 8l1.72 3.097c.224.403.65.653 1.11.653h2.117l-1.36-1.495a.75.75 0 0 1 1.11-1.01l2.5 2.75c.26.286.26.724 0 1.01l-2.5 2.75a.75.75 0 0 1-1.11-1.01l1.36-1.495h-2.117a2.77 2.77 0 0 1-2.42-1.425L7.308 8.75H5.903A2.999 2.999 0 0 1 0 8a3 3 0 0 1 5.902-.75H7.31l1.709-3.075a2.77 2.77 0 0 1 2.42-1.425h2.117l-1.36-1.495a.75.75 0 0 1 .05-1.06M3 6.5a1.5 1.5 0 1 0 0 3 1.5 1.5 0 0 0 0-3"/></svg>
